X: 37029
T: Sillocks And Tatties
R: reel
M: 4/4
K: Adorian
|:A2Ac BGGB|A2eg fded|A2Ac BGge|1 faef d3B:|2 faef d3e||
K:Dmaj
|:fdad ecce|fdad bdad|1 fdad ecce|faef d3e:|2 gdfd ecce|faef d3B||

